svgs/sharp-regular/calendar-days.svg

<svg xmlns="http://www.w3.org/2000/svg" viewBox="0 0 448 512"><!--! Font Awesome Pro 6.6.0 by @fontawesome - https://fontawesome.com License - https://fontawesome.com/license (Commercial License) Copyright 2024 Fonticons, Inc. --><path d="M152 24l0-24L104 0l0 24 0 40L0 64l0 80 0 48L0 464l0 48 48 0 352 0 48 0 0-48 0-272 0-48 0-80L344 64l0-40 0-24L296 0l0 24 0 40L152 64l0-40zM48 192l80 0 0 56-80 0 0-56zm0 104l80 0 0 64-80 0 0-64zm128 0l96 0 0 64-96 0 0-64zm144 0l80 0 0 64-80 0 0-64zm80-48l-80 0 0-56 80 0 0 56zm0 160l0 56-80 0 0-56 80 0zm-128 0l0 56-96 0 0-56 96 0zm-144 0l0 56-80 0 0-56 80 0zM272 248l-96 0 0-56 96 0 0 56z"/></svg>

<svg xmlns="http://www.w3.org/2000/svg" viewBox="0 0 448 512"><!--! Font Awesome Pro 6.4.0 by @fontawesome - https://fontawesome.com License - https://fontawesome.com/license (Commercial License) Copyright 2023 Fonticons, Inc. --><path d="M152 24V0H104V24 64H0v80 48V464v48H48 400h48V464 192 144 64H344V24 0H296V24 64H152V24zM48 192h80v56H48V192zm0 104h80v64H48V296zm128 0h96v64H176V296zm144 0h80v64H320V296zm80-48H320V192h80v56zm0 160v56H320V408h80zm-128 0v56H176V408h96zm-144 0v56H48V408h80zM272 248H176V192h96v56z"/></svg>
